X:1
T:Psalm 79
T:V 9
L:1/4
M:18/4
I:linebreak $
K:G
V:1 treble nm="Pipe Organ" snm="Org."
V:1
 D2 G2 A2 B2 B2 B A c B A3 z |$[M:14/4] D2 G A B2 c2 B A B c d2 |$ %2
w: Dan sal u volk, u ei- e kud- de weer,|wat U wou lei en deur u staf re- geer-|
[M:16/4] B2 A A G2 G2 G F G E D3 z |$[M:18/4] G2 G F G2 D2 E G A2 A2 G4 |] %4
w: dan sal ons sing tot in die na- ge- slag|van u ver- mo- ë\_en- on- ver- win- b're krag.|

